img/search.svg

<svg width="20" height="20" viewBox="0 0 20 20" fill="none" xmlns="http://www.w3.org/2000/svg">
<path d="M19.7246 17.2913L15.8305 13.3971C15.6547 13.2214 15.4165 13.1237 15.1665 13.1237H14.5298C15.6079 11.7449 16.2484 10.0107 16.2484 8.12421C16.2484 3.63636 12.6121 0 8.12421 0C3.63636 0 0 3.63636 0 8.12421C0 12.612 3.63636 16.2484 8.12421 16.2484C10.0107 16.2484 11.7449 15.6079 13.1237 14.5298V15.1665C13.1237 15.4165 13.2214 15.6547 13.3971 15.8305L17.2913 19.7246C17.6584 20.0918 18.2521 20.0918 18.6154 19.7246L19.7207 18.6193C20.0879 18.2521 20.0879 17.6584 19.7246 17.2913ZM8.12421 13.1237C5.36276 13.1237 3.1247 10.8896 3.1247 8.12421C3.1247 5.36276 5.35885 3.12469 8.12421 3.12469C10.8857 3.12469 13.1237 5.35885 13.1237 8.12421C13.1237 10.8857 10.8896 13.1237 8.12421 13.1237Z" fill="white"/>
</svg>

<svg width="20" height="20" fill="none" xmlns="http://www.w3.org/2000/svg"><path d="m19.725 17.291-3.895-3.894a.937.937 0 0 0-.664-.273h-.636a8.084 8.084 0 0 0 1.718-5A8.123 8.123 0 0 0 8.124 0 8.123 8.123 0 0 0 0 8.124a8.123 8.123 0 0 0 8.124 8.124c1.887 0 3.62-.64 5-1.718v.636c0 .25.097.489.273.665l3.894 3.894a.933.933 0 0 0 1.324 0l1.106-1.106a.942.942 0 0 0 .004-1.328Zm-11.6-4.167c-2.762 0-5-2.234-5-5 0-2.761 2.234-5 5-5a4.998 4.998 0 0 1 4.999 5c0 2.762-2.234 5-5 5Z" fill="#fff"/></svg>
